X:65
T:Klumpakojis
C:Traditional
O:Lithuania
B:Muzika \vSoki\;u Pamok\.el\.ese, Stasys Kazlauskas (\vSiauli\;u pedagoginis institutas), \vSiauliai, 1997
Z:Bert Van Vreckem <http://flanders.blackmill.net/music/>
M:2/4
L:1/8
K:C
"C"[CE]([C/E/][D/F/] [CE])([C/E/][D/F/]|"C"[CE])([C/E/][D/F/] [E2G2])|"G"[FA]([F/A/][E/G/] [D2F2])|"C"[EG]([E/G/][D/F/] [C2E2])|\
"C"[CE]([C/E/][D/F/] [CE])([C/E/][D/F/]|"C"[CE])([C/E/][D/F/] [E2G2])|"G"[FA]A/(G/ F/E/F/D/|"C"C)E Cz|
"C"[CEG](G AG)|"G"[B,D][B,D] [B,D]z|"G"[B,DG](G AG)|"C"[CE][CE] [CE]z|\
"C"[CEGc][CEGc] [CEGc]z|"F"[CFA][CFA] [CFA]z|("G"G>F E/F/E/D/|"C"C)z  [CEGc]z|]

